!!!!SEGMENT: pl-wtm--r-2139--004_wysocki-kasper-napoleon--la-legerte-n-4.krn
!!!cenid: 18xx:4371
!!!COM: Wysocki, Kasper Napoleon
!!!COM-rismID: pe41024789
!!!CDT: 1810/12/06-1850/09/21
!!!CNT: Polish
!!!GTL: La Légèrté
!!!OTL: N. 4.
!!!OMV: 004
!!!PDT:
!!!AGN: Secular; Waltz
!!!SMS-siglum: PL-Wtm
!!!SMS-shelfmark: R 2139
!!!SMS-shelfwork: 001-004 G
!!!SMS-variant:
!!!SMS-altvar:
!!!NIFC-rismSourceID: 1001139896
!!!NIFC-rismChildID: 1001139902
!!!NIFC-islandoraID: pl-wtm:29947
!!!URL-pdf-islandora: https://repozytorium.nifc.pl/islandora/object/pl-wtm:29947/datastream/PDF/view
!!!URL-scan: https://polish.musicsources.pl/pl/lokalizacje/galeria/rekopisy/6569/3 @EN{Scan on Polish Music Sources Website} @PL{Skany w portalu Dziedzictwo Muzyki Polskiej w otwartym dostępie}
!!!ONB-nifc: UWAGA: skan 3
!!!AIN: 2 piano
!!!key: G
!!!OMD: N. 4.
**kern	**kern	**dynam
*part2	*part1	*part1
*staff2	*staff1	*
*>[A,A,B,B]	*>[A,A,B,B]	*>[A,A,B,B]
*>A	*>A	*>A
*I"fortepian	*I"fortepian	*
*Ipiano	*Ipiano	*
*ICklav	*ICklav	*
*clefF4	*clefG2	*
*k[f#]	*k[f#]	*
*G:	*G:	*
*M3/4	*M3/4	*
=	=	=
*	*ped	*
4r	4d/	.
=1	=1	=1
4GG/	4dd\	f
4B 4G\	8dd\L	.
.	8dd\	.
4D\	8dd\	.
.	8dd\J	.
=2	=2	=2
*rep	*	*
4GG/	4gg\	.
4B 4G\	8gg\L	.
.	8gg\	.
4D\	8gg\	.
.	8gg\J	.
*Xrep	*	*
=3	=3	=3
4DD/	4aa\	.
4c 4A 4F#\	8aa\L	.
.	8aa\	.
4D\	8aa\	.
.	8aa\J	.
=4	=4	=4
4GG/	4.ddd^^\	.
4B 4G\	.	.
.	8bb\	.
4D\	4gg\	.
=5	=5	=5
*ped	*	*
*rep	*8va	*
!	!	!LO:DY:t=p.
4GG/	8ddd\L	p
.	8ddd\	.
4B 4G\	8ddd\	.
.	8ddd\	.
4D\	8ddd\	.
.	8ddd\J	.
*Xrep	*	*
!!LO:LB:g=original
=6	=6	=6
*rep	*	*
4GG/	8ggg\L	.
.	8ggg\	.
4B 4G\	8ggg\	.
.	8ggg\	.
4D\	8ggg\	.
.	8ggg\J	.
*Xrep	*	*
=7	=7	=7
4DD/	8aaa\L	.
.	8aaa\	.
4c 4A 4F#\	8aaa\	.
.	8aaa\	.
4D\	8aaa\	.
*Xped	*	*
.	8bbb\J	.
=	=	=
4B 4G\	4ggg\	.
4GG/	4r	.
=8:|!|:	=8:|!|:	=8:|!|:
4r	8bbb\L	ff
.	8bbb\J	.
=9	=9	=9
*ped	*	*
4B 4F# 4D#X 4BB\	8bbb^<\L	.
.	8cccc\	.
4r	8bbb\	.
.	8bbb\	.
4B 4F# 4D# 4BB\	8bbb\	.
.	8bbb\J	.
=10	=10	=10
4B 4G 4E 4BB\	8bbb^<\L	.
.	8cccc\	.
4r	8bbb\	.
.	8bbb\	.
4B 4G 4E 4BB\	8bbb\	.
.	8bbb\J	.
!!LO:LB:g=original
=11	=11	=11
4B 4F# 4D#X 4BB\	8bbb^<\L	.
.	8cccc\	.
4r	8bbb\	.
.	8bbb\	.
4B 4F# 4D# 4BB\	8bbb\	.
.	8bbb\J	.
=12	=12	=12
4B 4G 4E 4BB\	8bbb\L	>
.	8bbb\	.
4r	8bbb\	.
.	8bbb\	.
4B 4G 4E 4BB\	8bbb\	.
*Xped	*	*
.	8bbb\J	]
=13	=13	=13
!	!	!LO:DY:t=p.
4DD/	8aaa\L	p
.	8aaa\	.
4c 4A 4F#\	8aaa\	.
.	8aaa\	.
4D\	8bbb\	.
.	8cccc\J	.
=14	=14	=14
4GG/	4.eeee\	.
4B 4G\	.	.
.	8dddd\L	.
4D\	8bbb\	.
.	8ggg\J	.
=15	=15	=15
4DD/	8aaa\L	.
.	8aaa\	.
4c 4A 4F#\	8aaa\	.
.	8aaa\	.
4D\	8bbb\	.
.	8aaa\J	.
=16	=16	=16
4B 4G\	4ggg\	.
4r	4r	.
*	*X8va	*
=:|!	=:|!	=:|!
*-	*-	*-
!!!system-decoration: {(*)}
!!!RDF**kern: < = below
!!!ENC: Filip Voros
!!!END: 2023-07-12
!!!ENC: Marta Lawrence
!!!END: 2023-07-21
!!!YEC: Copyright 2022 Narodowy Instytut Fryderyka Chopina (https://polishscores.org)
!!!YEM: License CC-BY-4.0 (https://creativecommons.org/licenses/by/4.0)
